img/search-icon.svg

<svg preserveAspectRatio="none" width="100%" height="100%" overflow="visible" style="display: block;" viewBox="0 0 48 48" fill="none" xmlns="http://www.w3.org/2000/svg">
<g id="material-symbols-light:search-rounded">
<path id="Vector" d="M19.078 30.46C15.8807 30.46 13.1707 29.3493 10.948 27.128C8.72667 24.908 7.616 22.1987 7.616 19C7.616 15.8013 8.72667 13.0913 10.948 10.87C13.1693 8.64867 15.8793 7.53867 19.078 7.54C22.2767 7.54133 24.986 8.652 27.206 10.872C29.426 13.092 30.5367 15.8013 30.538 19C30.538 20.3893 30.292 21.734 29.8 23.034C29.308 24.334 28.6613 25.446 27.86 26.37L39.678 38.184C39.8647 38.3707 39.9647 38.6007 39.978 38.874C39.99 39.1447 39.89 39.3867 39.678 39.6C39.4647 39.8133 39.2287 39.92 38.97 39.92C38.7113 39.92 38.4753 39.8133 38.262 39.6L26.446 27.784C25.446 28.636 24.296 29.2953 22.996 29.762C21.696 30.2287 20.3893 30.462 19.076 30.462M19.076 28.462C21.7293 28.462 23.97 27.5487 25.798 25.722C27.6247 23.8953 28.538 21.6547 28.538 19C28.538 16.3453 27.6253 14.1053 25.8 12.28C23.9747 10.4547 21.7347 9.54133 19.08 9.54C16.4253 9.54 14.1847 10.4533 12.358 12.28C10.5313 14.1067 9.61733 16.3467 9.616 19C9.61467 21.6533 10.528 23.8933 12.356 25.72C14.184 27.5467 16.424 28.46 19.076 28.46" fill="var(--fill-0, white)"/>
</g>
</svg>

<svg xmlns="http://www.w3.org/2000/svg" fill="none" overflow="visible" preserveAspectRatio="none" style="display:block" viewBox="0 0 48 48"><path fill="var(--fill-0, white)" d="M19.078 30.46q-4.796 0-8.13-3.332Q7.616 23.798 7.616 19t3.332-8.13 8.13-3.33 8.128 3.332T30.538 19q0 2.084-.738 4.034t-1.94 3.336l11.818 11.814q.28.28.3.69.018.406-.3.726-.32.32-.708.32t-.708-.32L26.446 27.784q-1.5 1.278-3.45 1.978t-3.92.7m0-2q3.98 0 6.722-2.74 2.74-2.74 2.74-6.722T25.8 12.28q-2.737-2.738-6.72-2.74-3.982 0-6.722 2.74T9.616 19t2.74 6.72 6.72 2.74"/></svg>
